!!!OTL: Graf Joerg von Wertheim
!!!ARE: Europa, Mitteleuropa, Deutschland
!!!SCT: A0385
!!!YEM: Copyright 1995, estate of Helmut Schaffrath.
**kern
*ICvox
*Ivox
!! Mixed meters:  4/2; 6/2
*M4/2
*k[f#c#]
*D:
{2d
2d
2d
=1
1a
2b
1ccn
2b
=2
1a
2r}
{2a
2ccn
2b
=3
1a
2g
2a
1fn
=4
1e
2r}
{2d
2fn
2g
=5
1a
2g
2fn
=6
4g
4e
4d
4cn
1d
=7
*M6/2
1cn
2r}
{2cn
2fn
2g
=8
1a
2g
1ccn
2b-
=9
*M4/2
2a
4g
4fn
2g
2g
=10
*M6/2
1fn
2r}
{2d
2e
2fn
=11
2.g
4fn
2e
2fn
1d
=12
*M4/2
1cn
2r}
{2cn
=13
2.fn
4g
2a
2b
=14
2.ccn
4b
2a
2g
=15
2fn
2g
1e
=16
1.d}
==
!!!AGN: Romanze, Ballade, Lied, Personenlied
!! Offn. Bl. kl. folio, o.O.u.J. (c.1523), Bibl. Berlin
!!!ONB: ESAC (Essen Associative Code) Database: ALTDEU
!!!AMT: irregular
!!!AIN: vox
!!!EED: Helmut Schaffrath
!!!EEV: 1.0
*-
